X: 22
T:Red River Valley
M:4/4
L:1/4
Q:100
R:March
K:G
DG|"G"B2B2|B2A>B|AG-G2-|GzDG|BBGB|ddcB|"D"A2-A2-|Azdc|
"G"B2 B A | G2 A B | "C"d c3-|cz E E|"D"D2 F G|A2BA|"G"G2-G2-|Gz|
